bicons/scalable/emblems/crown.svg

<?xml version="1.0" encoding="UTF-8" standalone="no"?>
<!-- Created with Inkscape (http://www.inkscape.org/) -->

<svg
   xmlns:dc="http://purl.org/dc/elements/1.1/"
   xmlns:cc="http://creativecommons.org/ns#"
   xmlns:rdf="http://www.w3.org/1999/02/22-rdf-syntax-ns#"
   xmlns:svg="http://www.w3.org/2000/svg"
   xmlns="http://www.w3.org/2000/svg"
   xmlns:xlink="http://www.w3.org/1999/xlink"
   xmlns:sodipodi="http://sodipodi.sourceforge.net/DTD/sodipodi-0.dtd"
   xmlns:inkscape="http://www.inkscape.org/namespaces/inkscape"
   width="210mm"
   height="297mm"
   viewBox="0 0 744.09448819 1052.3622047"
   id="svg2"
   version="1.1"
   inkscape:version="0.91 r13725"
   sodipodi:docname="crown.svg"
   inkscape:export-filename="C:\Users\johannes\Documents\Arbeit\RRZE\bi-con\bi-con\scalable\documents\document.png"
   inkscape:export-xdpi="4"
   inkscape:export-ydpi="4">
  <defs
     id="defs4">
    <linearGradient
       inkscape:collect="always"
       id="linearGradient4248">
      <stop
         style="stop-color:#5a6578;stop-opacity:1;"
         offset="0"
         id="stop4250" />
      <stop
         style="stop-color:#9397a2;stop-opacity:1"
         offset="1"
         id="stop4252" />
    </linearGradient>
    <linearGradient
       id="linearGradient2224">
      <stop
         id="stop2226"
         offset="0"
         style="stop-color:#7c7c7c;stop-opacity:1;" />
      <stop
         id="stop2228"
         offset="1"
         style="stop-color:#b8b8b8;stop-opacity:1;" />
    </linearGradient>
    <linearGradient
       id="linearGradient15218">
      <stop
         id="stop15220"
         offset="0"
         style="stop-color:#eeeeef;stop-opacity:1;" />
      <stop
         id="stop2736"
         offset="0.59928656"
         style="stop-color:#d3d7cf;stop-opacity:1;" />
      <stop
         id="stop2738"
         offset="0.82758623"
         style="stop-color:#ffffff;stop-opacity:1;" />
      <stop
         id="stop15222"
         offset="1"
         style="stop-color:#d3d7cf;stop-opacity:1;" />
    </linearGradient>
    <pattern
       y="0"
       x="0"
       height="6"
       width="6"
       patternUnits="userSpaceOnUse"
       id="EMFhbasepattern" />
    <pattern
       y="0"
       x="0"
       height="6"
       width="6"
       patternUnits="userSpaceOnUse"
       id="EMFhbasepattern-5" />
    <linearGradient
       inkscape:collect="always"
       xlink:href="#linearGradient4248"
       id="linearGradient4254"
       x1="232"
       y1="630.36218"
       x2="590"
       y2="454.36221"
       gradientUnits="userSpaceOnUse" />
  </defs>
  <sodipodi:namedview
     id="base"
     pagecolor="#ffffff"
     bordercolor="#666666"
     borderopacity="1.0"
     inkscape:pageopacity="0.0"
     inkscape:pageshadow="2"
     inkscape:zoom="1"
     inkscape:cx="378.69632"
     inkscape:cy="573.14278"
     inkscape:document-units="px"
     inkscape:current-layer="layer1"
     showgrid="false"
     showguides="true"
     inkscape:guide-bbox="true"
     inkscape:window-width="1366"
     inkscape:window-height="721"
     inkscape:window-x="-4"
     inkscape:window-y="-4"
     inkscape:window-maximized="1">
    <sodipodi:guide
       position="560,730.00002"
       orientation="0,1"
       id="guide3338" />
    <sodipodi:guide
       position="560,330.00001"
       orientation="0,1"
       id="guide3340" />
    <sodipodi:guide
       position="190,475.00001"
       orientation="1,0"
       id="guide3344" />
    <sodipodi:guide
       position="590,451.00001"
       orientation="1,0"
       id="guide3346" />
    <inkscape:grid
       type="xygrid"
       id="grid3440" />
  </sodipodi:namedview>
  <metadata
     id="metadata7">
    <rdf:RDF>
      <cc:Work
         rdf:about="">
        <dc:format>image/svg+xml</dc:format>
        <dc:type
           rdf:resource="http://purl.org/dc/dcmitype/StillImage" />
      </cc:Work>
    </rdf:RDF>
  </metadata>
  <g
     inkscape:label="Ebene 1"
     inkscape:groupmode="layer"
     id="layer1">
    <rect
       style="opacity:1;fill:none;fill-opacity:1;stroke:none;stroke-width:23;stroke-linecap:butt;stroke-linejoin:round;stroke-miterlimit:4;stroke-dasharray:none;stroke-opacity:1"
       id="rect4160"
       width="400"
       height="400"
       x="190"
       y="322.36221" />
    <g
       id="g4161"
       transform="matrix(0.875,0,0,0.875,45.746826,61.730101)">
      <path
         id="path4151"
         d="m 389.74219,409.38672 a 9.9528885,9.9528885 0 0 0 -9.95313,9.95312 9.9528885,9.9528885 0 0 0 1.78321,5.66602 l -75.85157,75.85156 -97.08789,-58.25195 a 9.9528885,9.9528885 0 0 0 1.24805,-4.82031 9.9528885,9.9528885 0 0 0 -9.95313,-9.95313 9.9528885,9.9528885 0 0 0 -9.95312,9.95313 9.9528885,9.9528885 0 0 0 5.37695,8.82812 c -0.0334,0.28636 -0.0604,0.57596 -0.0605,0.875 l 0,162.65039 c 4.1e-4,4.03065 3.26818,7.29841 7.29882,7.29883 143.16796,47.6681 224.42653,49.39966 375.34766,0 4.03064,-4.2e-4 7.29841,-3.26818 7.29883,-7.29883 l 0,-162.65039 c -1.6e-4,-0.29971 -0.027,-0.58999 -0.0605,-0.87695 a 9.9528885,9.9528885 0 0 0 4.79883,-8.50391 9.9528885,9.9528885 0 0 0 -9.95313,-9.95312 9.9528885,9.9528885 0 0 0 -9.95117,9.95312 9.9528885,9.9528885 0 0 0 1.26367,4.83399 l -96.52734,57.91601 -76.48828,-76.48828 a 9.9528885,9.9528885 0 0 0 1.37695,-5.0293 9.9528885,9.9528885 0 0 0 -9.95312,-9.95312 z"
         style="color:#000000;font-style:normal;font-variant:normal;font-weight:normal;font-stretch:normal;font-size:medium;line-height:normal;font-family:sans-serif;text-indent:0;text-align:start;text-decoration:none;text-decoration-line:none;text-decoration-style:solid;text-decoration-color:#000000;letter-spacing:normal;word-spacing:normal;text-transform:none;direction:ltr;block-progression:tb;writing-mode:lr-tb;baseline-shift:baseline;text-anchor:start;white-space:normal;clip-rule:nonzero;display:inline;overflow:visible;visibility:visible;opacity:1;isolation:auto;mix-blend-mode:normal;color-interpolation:sRGB;color-interpolation-filters:linearRGB;solid-color:#000000;solid-opacity:1;fill:url(#linearGradient4254);fill-opacity:1;fill-rule:evenodd;stroke:none;stroke-width:3.5;stroke-linecap:butt;stroke-linejoin:round;stroke-miterlimit:4;stroke-dasharray:none;stroke-dashoffset:0;stroke-opacity:1;color-rendering:auto;image-rendering:auto;shape-rendering:auto;text-rendering:auto;enable-background:accumulate"
         inkscape:connector-curvature="0" />
      <path
         sodipodi:nodetypes="ccccccc"
         inkscape:connector-curvature="0"
         id="path4155"
         d="m 299.85452,410.19161 c -1.95018,0.0417 -3.80815,0.83765 -5.18058,2.22372 l -40.11521,41.79275 49.04433,31.27074 39.3186,-39.63622 -38.1961,-33.98929 c -1.37719,-1.11053 -3.10228,-1.69903 -4.87104,-1.6617 z"
         style="color:#000000;font-style:normal;font-variant:normal;font-weight:normal;font-stretch:normal;font-size:medium;line-height:normal;font-family:sans-serif;text-indent:0;text-align:start;text-decoration:none;text-decoration-line:none;text-decoration-style:solid;text-decoration-color:#000000;letter-spacing:normal;word-spacing:normal;text-transform:none;direction:ltr;block-progression:tb;writing-mode:lr-tb;baseline-shift:baseline;text-anchor:start;white-space:normal;clip-rule:nonzero;display:inline;overflow:visible;visibility:visible;opacity:1;isolation:auto;mix-blend-mode:normal;color-interpolation:sRGB;color-interpolation-filters:linearRGB;solid-color:#000000;solid-opacity:1;fill:#abbe24;fill-opacity:1;fill-rule:evenodd;stroke:none;stroke-width:3.5999999;stroke-linecap:butt;stroke-linejoin:round;stroke-miterlimit:4;stroke-dasharray:none;stroke-dashoffset:0;stroke-opacity:1;color-rendering:auto;image-rendering:auto;shape-rendering:auto;text-rendering:auto;enable-background:accumulate" />
      <path
         sodipodi:nodetypes="ccccccc"
         inkscape:connector-curvature="0"
         id="path4157"
         d="m 478.55461,411.2973 c -1.85571,-0.0334 -3.65775,0.62311 -5.05838,1.84091 l -33.60836,33.21787 38.57733,38.82326 47.27036,-30.23149 -41.83746,-41.2802 c -1.38779,-1.47957 -3.31524,-2.33457 -5.34349,-2.37035 z"
         style="color:#000000;font-style:normal;font-variant:normal;font-weight:normal;font-stretch:normal;font-size:medium;line-height:normal;font-family:sans-serif;text-indent:0;text-align:start;text-decoration:none;text-decoration-line:none;text-decoration-style:solid;text-decoration-color:#000000;letter-spacing:normal;word-spacing:normal;text-transform:none;direction:ltr;block-progression:tb;writing-mode:lr-tb;baseline-shift:baseline;text-anchor:start;white-space:normal;clip-rule:nonzero;display:inline;overflow:visible;visibility:visible;opacity:1;isolation:auto;mix-blend-mode:normal;color-interpolation:sRGB;color-interpolation-filters:linearRGB;solid-color:#000000;solid-opacity:1;fill:#abbe24;fill-opacity:1;fill-rule:evenodd;stroke:none;stroke-width:3.5999999;stroke-linecap:butt;stroke-linejoin:round;stroke-miterlimit:4;stroke-dasharray:none;stroke-dashoffset:0;stroke-opacity:1;color-rendering:auto;image-rendering:auto;shape-rendering:auto;text-rendering:auto;enable-background:accumulate" />
      <circle
         r="9.9528885"
         cy="411.06006"
         cx="479.53055"
         id="path4165-7-6-5"
         style="color:#000000;clip-rule:nonzero;display:inline;overflow:visible;visibility:visible;opacity:1;isolation:auto;mix-blend-mode:normal;color-interpolation:sRGB;color-interpolation-filters:linearRGB;solid-color:#000000;solid-opacity:1;fill:#abbe24;fill-opacity:1;fill-rule:nonzero;stroke:none;stroke-width:3.5999999;stroke-linecap:butt;stroke-linejoin:round;stroke-miterlimit:4;stroke-dasharray:none;stroke-dashoffset:0;stroke-opacity:1;color-rendering:auto;image-rendering:auto;shape-rendering:auto;text-rendering:auto;enable-background:accumulate" />
      <circle
         r="9.9528885"
         cy="408.11087"
         cx="299.64114"
         id="path4165-7-6-0"
         style="color:#000000;clip-rule:nonzero;display:inline;overflow:visible;visibility:visible;opacity:1;isolation:auto;mix-blend-mode:normal;color-interpolation:sRGB;color-interpolation-filters:linearRGB;solid-color:#000000;solid-opacity:1;fill:#abbe24;fill-opacity:1;fill-rule:nonzero;stroke:none;stroke-width:3.5999999;stroke-linecap:butt;stroke-linejoin:round;stroke-miterlimit:4;stroke-dasharray:none;stroke-dashoffset:0;stroke-opacity:1;color-rendering:auto;image-rendering:auto;shape-rendering:auto;text-rendering:auto;enable-background:accumulate" />
      <path
         inkscape:connector-curvature="0"
         id="path4218"
         d="m 390.42265,505.83368 -20.85261,31.27891 20.85261,31.27892 20.85261,-31.27892 z"
         style="fill:#ffffff;fill-rule:evenodd;stroke:none;stroke-width:1px;stroke-linecap:butt;stroke-linejoin:miter;stroke-opacity:1" />
      <path
         inkscape:connector-curvature="0"
         id="path4220"
         d="m 231.24927,496.75721 -20.85261,31.27891 20.85261,31.27891 10.4263,-31.27891 z"
         style="fill:#ffffff;fill-rule:evenodd;stroke:none;stroke-width:1px;stroke-linecap:butt;stroke-linejoin:miter;stroke-opacity:1" />
      <path
         style="fill:#ffffff;fill-rule:evenodd;stroke:none;stroke-width:1px;stroke-linecap:butt;stroke-linejoin:miter;stroke-opacity:1"
         d="m 550.45729,496.758 20.8526,31.27891 -20.8526,31.27891 -10.42631,-31.27891 z"
         id="path4222"
         inkscape:connector-curvature="0" />
    </g>
  </g>
</svg>

<?xml version="1.0" encoding="UTF-8" standalone="no"?>
<!-- Created with Inkscape (http://www.inkscape.org/) -->

<svg
   xmlns:dc="http://purl.org/dc/elements/1.1/"
   xmlns:cc="http://creativecommons.org/ns#"
   xmlns:rdf="http://www.w3.org/1999/02/22-rdf-syntax-ns#"
   xmlns:svg="http://www.w3.org/2000/svg"
   xmlns="http://www.w3.org/2000/svg"
   xmlns:xlink="http://www.w3.org/1999/xlink"
   xmlns:sodipodi="http://sodipodi.sourceforge.net/DTD/sodipodi-0.dtd"
   xmlns:inkscape="http://www.inkscape.org/namespaces/inkscape"
   width="210mm"
   height="297mm"
   viewBox="0 0 744.09448819 1052.3622047"
   id="svg2"
   version="1.1"
   inkscape:version="0.91 r13725"
   sodipodi:docname="crown.svg"
   inkscape:export-filename="C:\Users\johannes\Documents\Arbeit\RRZE\bi-con\bi-con\scalable\documents\document.png"
   inkscape:export-xdpi="4"
   inkscape:export-ydpi="4">
  <defs
     id="defs4">
    <linearGradient
       inkscape:collect="always"
       id="linearGradient4248">
      <stop
         style="stop-color:#5a6578;stop-opacity:1;"
         offset="0"
         id="stop4250" />
      <stop
         style="stop-color:#9397a2;stop-opacity:1"
         offset="1"
         id="stop4252" />
    </linearGradient>
    <linearGradient
       id="linearGradient2224">
      <stop
         id="stop2226"
         offset="0"
         style="stop-color:#7c7c7c;stop-opacity:1;" />
      <stop
         id="stop2228"
         offset="1"
         style="stop-color:#b8b8b8;stop-opacity:1;" />
    </linearGradient>
    <linearGradient
       id="linearGradient15218">
      <stop
         id="stop15220"
         offset="0"
         style="stop-color:#eeeeef;stop-opacity:1;" />
      <stop
         id="stop2736"
         offset="0.59928656"
         style="stop-color:#d3d7cf;stop-opacity:1;" />
      <stop
         id="stop2738"
         offset="0.82758623"
         style="stop-color:#ffffff;stop-opacity:1;" />
      <stop
         id="stop15222"
         offset="1"
         style="stop-color:#d3d7cf;stop-opacity:1;" />
    </linearGradient>
    <pattern
       y="0"
       x="0"
       height="6"
       width="6"
       patternUnits="userSpaceOnUse"
       id="EMFhbasepattern" />
    <pattern
       y="0"
       x="0"
       height="6"
       width="6"
       patternUnits="userSpaceOnUse"
       id="EMFhbasepattern-5" />
    <linearGradient
       inkscape:collect="always"
       xlink:href="#linearGradient4248"
       id="linearGradient4254"
       x1="232"
       y1="630.36218"
       x2="590"
       y2="454.36221"
       gradientUnits="userSpaceOnUse" />
  </defs>
  <sodipodi:namedview
     id="base"
     pagecolor="#ffffff"
     bordercolor="#666666"
     borderopacity="1.0"
     inkscape:pageopacity="0.0"
     inkscape:pageshadow="2"
     inkscape:zoom="0.5"
     inkscape:cx="-4.315435"
     inkscape:cy="643.60692"
     inkscape:document-units="px"
     inkscape:current-layer="layer1"
     showgrid="false"
     showguides="true"
     inkscape:guide-bbox="true"
     inkscape:window-width="1366"
     inkscape:window-height="721"
     inkscape:window-x="-4"
     inkscape:window-y="-4"
     inkscape:window-maximized="1">
    <sodipodi:guide
       position="560,730.00002"
       orientation="0,1"
       id="guide3338" />
    <sodipodi:guide
       position="560,330.00001"
       orientation="0,1"
       id="guide3340" />
    <sodipodi:guide
       position="190,475.00001"
       orientation="1,0"
       id="guide3344" />
    <sodipodi:guide
       position="590,451.00001"
       orientation="1,0"
       id="guide3346" />
    <inkscape:grid
       type="xygrid"
       id="grid3440" />
  </sodipodi:namedview>
  <metadata
     id="metadata7">
    <rdf:RDF>
      <cc:Work
         rdf:about="">
        <dc:format>image/svg+xml</dc:format>
        <dc:type
           rdf:resource="http://purl.org/dc/dcmitype/StillImage" />
      </cc:Work>
    </rdf:RDF>
  </metadata>
  <g
     inkscape:label="Ebene 1"
     inkscape:groupmode="layer"
     id="layer1">
    <rect
       style="opacity:1;fill:none;fill-opacity:1;stroke:none;stroke-width:23;stroke-linecap:butt;stroke-linejoin:round;stroke-miterlimit:4;stroke-dasharray:none;stroke-opacity:1"
       id="rect4160"
       width="400"
       height="400"
       x="190"
       y="322.36221" />
    <path
       style="color:#000000;font-style:normal;font-variant:normal;font-weight:normal;font-stretch:normal;font-size:medium;line-height:normal;font-family:sans-serif;text-indent:0;text-align:start;text-decoration:none;text-decoration-line:none;text-decoration-style:solid;text-decoration-color:#000000;letter-spacing:normal;word-spacing:normal;text-transform:none;direction:ltr;block-progression:tb;writing-mode:lr-tb;baseline-shift:baseline;text-anchor:start;white-space:normal;clip-rule:nonzero;display:inline;overflow:visible;visibility:visible;opacity:1;isolation:auto;mix-blend-mode:normal;color-interpolation:sRGB;color-interpolation-filters:linearRGB;solid-color:#000000;solid-opacity:1;fill:url(#linearGradient4254);fill-opacity:1;fill-rule:evenodd;stroke:none;stroke-width:3.5;stroke-linecap:butt;stroke-linejoin:round;stroke-miterlimit:4;stroke-dasharray:none;stroke-dashoffset:0;stroke-opacity:1;color-rendering:auto;image-rendering:auto;shape-rendering:auto;text-rendering:auto;enable-background:accumulate"
       d="M 389.74219 409.38672 A 9.9528885 9.9528885 0 0 0 379.78906 419.33984 A 9.9528885 9.9528885 0 0 0 381.57227 425.00586 L 305.7207 500.85742 L 208.63281 442.60547 A 9.9528885 9.9528885 0 0 0 209.88086 437.78516 A 9.9528885 9.9528885 0 0 0 199.92773 427.83203 A 9.9528885 9.9528885 0 0 0 189.97461 437.78516 A 9.9528885 9.9528885 0 0 0 195.35156 446.61328 C 195.31812 446.89964 195.29117 447.18924 195.29102 447.48828 L 195.29102 610.13867 C 195.29143 614.16932 198.5592 617.43708 202.58984 617.4375 C 345.7578 665.1056 427.01637 666.83716 577.9375 617.4375 C 581.96814 617.43708 585.23591 614.16932 585.23633 610.13867 L 585.23633 447.48828 C 585.23617 447.18857 585.20937 446.89829 585.17578 446.61133 A 9.9528885 9.9528885 0 0 0 589.97461 438.10742 A 9.9528885 9.9528885 0 0 0 580.02148 428.1543 A 9.9528885 9.9528885 0 0 0 570.07031 438.10742 A 9.9528885 9.9528885 0 0 0 571.33398 442.94141 L 474.80664 500.85742 L 398.31836 424.36914 A 9.9528885 9.9528885 0 0 0 399.69531 419.33984 A 9.9528885 9.9528885 0 0 0 389.74219 409.38672 z "
       id="path4151" />
    <path
       style="color:#000000;font-style:normal;font-variant:normal;font-weight:normal;font-stretch:normal;font-size:medium;line-height:normal;font-family:sans-serif;text-indent:0;text-align:start;text-decoration:none;text-decoration-line:none;text-decoration-style:solid;text-decoration-color:#000000;letter-spacing:normal;word-spacing:normal;text-transform:none;direction:ltr;block-progression:tb;writing-mode:lr-tb;baseline-shift:baseline;text-anchor:start;white-space:normal;clip-rule:nonzero;display:inline;overflow:visible;visibility:visible;opacity:1;isolation:auto;mix-blend-mode:normal;color-interpolation:sRGB;color-interpolation-filters:linearRGB;solid-color:#000000;solid-opacity:1;fill:#abbe24;fill-opacity:1;fill-rule:evenodd;stroke:none;stroke-width:3.5999999;stroke-linecap:butt;stroke-linejoin:round;stroke-miterlimit:4;stroke-dasharray:none;stroke-dashoffset:0;stroke-opacity:1;color-rendering:auto;image-rendering:auto;shape-rendering:auto;text-rendering:auto;enable-background:accumulate"
       d="m 299.85452,410.19161 c -1.95018,0.0417 -3.80815,0.83765 -5.18058,2.22372 l -40.11521,41.79275 49.04433,31.27074 39.3186,-39.63622 -38.1961,-33.98929 c -1.37719,-1.11053 -3.10228,-1.69903 -4.87104,-1.6617 z"
       id="path4155"
       inkscape:connector-curvature="0"
       sodipodi:nodetypes="ccccccc" />
    <path
       style="color:#000000;font-style:normal;font-variant:normal;font-weight:normal;font-stretch:normal;font-size:medium;line-height:normal;font-family:sans-serif;text-indent:0;text-align:start;text-decoration:none;text-decoration-line:none;text-decoration-style:solid;text-decoration-color:#000000;letter-spacing:normal;word-spacing:normal;text-transform:none;direction:ltr;block-progression:tb;writing-mode:lr-tb;baseline-shift:baseline;text-anchor:start;white-space:normal;clip-rule:nonzero;display:inline;overflow:visible;visibility:visible;opacity:1;isolation:auto;mix-blend-mode:normal;color-interpolation:sRGB;color-interpolation-filters:linearRGB;solid-color:#000000;solid-opacity:1;fill:#abbe24;fill-opacity:1;fill-rule:evenodd;stroke:none;stroke-width:3.5999999;stroke-linecap:butt;stroke-linejoin:round;stroke-miterlimit:4;stroke-dasharray:none;stroke-dashoffset:0;stroke-opacity:1;color-rendering:auto;image-rendering:auto;shape-rendering:auto;text-rendering:auto;enable-background:accumulate"
       d="m 478.55461,411.2973 c -1.85571,-0.0334 -3.65775,0.62311 -5.05838,1.84091 l -33.60836,33.21787 38.57733,38.82326 47.27036,-30.23149 -41.83746,-41.2802 c -1.38779,-1.47957 -3.31524,-2.33457 -5.34349,-2.37035 z"
       id="path4157"
       inkscape:connector-curvature="0"
       sodipodi:nodetypes="ccccccc" />
    <circle
       style="color:#000000;clip-rule:nonzero;display:inline;overflow:visible;visibility:visible;opacity:1;isolation:auto;mix-blend-mode:normal;color-interpolation:sRGB;color-interpolation-filters:linearRGB;solid-color:#000000;solid-opacity:1;fill:#abbe24;fill-opacity:1;fill-rule:nonzero;stroke:none;stroke-width:3.5999999;stroke-linecap:butt;stroke-linejoin:round;stroke-miterlimit:4;stroke-dasharray:none;stroke-dashoffset:0;stroke-opacity:1;color-rendering:auto;image-rendering:auto;shape-rendering:auto;text-rendering:auto;enable-background:accumulate"
       id="path4165-7-6-5"
       cx="479.53055"
       cy="411.06006"
       r="9.9528885" />
    <circle
       style="color:#000000;clip-rule:nonzero;display:inline;overflow:visible;visibility:visible;opacity:1;isolation:auto;mix-blend-mode:normal;color-interpolation:sRGB;color-interpolation-filters:linearRGB;solid-color:#000000;solid-opacity:1;fill:#abbe24;fill-opacity:1;fill-rule:nonzero;stroke:none;stroke-width:3.5999999;stroke-linecap:butt;stroke-linejoin:round;stroke-miterlimit:4;stroke-dasharray:none;stroke-dashoffset:0;stroke-opacity:1;color-rendering:auto;image-rendering:auto;shape-rendering:auto;text-rendering:auto;enable-background:accumulate"
       id="path4165-7-6-0"
       cx="299.64114"
       cy="408.11087"
       r="9.9528885" />
    <path
       style="fill:#ffffff;fill-rule:evenodd;stroke:none;stroke-width:1px;stroke-linecap:butt;stroke-linejoin:miter;stroke-opacity:1"
       d="m 390.42265,505.83368 -20.85261,31.27891 20.85261,31.27892 20.85261,-31.27892 z"
       id="path4218"
       inkscape:connector-curvature="0" />
    <path
       style="fill:#ffffff;fill-rule:evenodd;stroke:none;stroke-width:1px;stroke-linecap:butt;stroke-linejoin:miter;stroke-opacity:1"
       d="m 231.24927,496.75721 -20.85261,31.27891 20.85261,31.27891 10.4263,-31.27891 z"
       id="path4220"
       inkscape:connector-curvature="0" />
    <path
       inkscape:connector-curvature="0"
       id="path4222"
       d="m 550.45729,496.758 20.8526,31.27891 -20.8526,31.27891 -10.42631,-31.27891 z"
       style="fill:#ffffff;fill-rule:evenodd;stroke:none;stroke-width:1px;stroke-linecap:butt;stroke-linejoin:miter;stroke-opacity:1" />
  </g>
</svg>
